!!!OTL@@FUR: In c&icirc;l e j&egrave; une stele
!!!OTL@IT: In cielo c'&egrave; una stella
!!!OTL@EN: In the sky there is a star
**kern
*clefG2
*k[f#c#]
*D:
*M3/4
*MM60
*>[A]
*>A
8f#
8g
=1
4.a
8a
8b
8f#
=2
4a
4e
8e
8f#
=3
4.g
8b
8a
8g
=4
2f#
8f#
8g
=5
4.a
8a
8b
8f#
=6
4a
4e
8e
8f#
=7
4.g
8a
8b
8cc#
=8
2a
8e
8f#
=9
4g
4g
8a
8e
=10
8f#
8b
4a
4a
=11
4.b
8b
8cc#
8b
=12
2a
4a
=13
4.dd
8dd
8cc#
8b
=14
4a
4f#
8b
8a
=15
4.a
8e
8f#
8g
=16
2a
4d
=17
4.dd
8dd
8cc#
8b
=18
4a
4f#
8b
8a
=19
8cc#
8b
4a
4g
=20
2.f#
==
*-
!!!ARE: Friuli
!!!ENC: Kelly Leistikow
!!!END: 2002/03/07
!!!ref: @{OTL@@FUR}/@{OTL@EN}
